z_dist/img/icons/crypto/nexo-NEXO.svg

<svg width="64" height="64" viewBox="0 0 64 64" fill="none" xmlns="http://www.w3.org/2000/svg">
<rect y="0.000244141" width="64" height="64" rx="4" fill="#EDF0F4"/>
<path d="M22.9494 16.21L41.1179 26.6947V37.3891L13.3334 21.3475L22.2379 16.21C22.4599 16.0902 22.7273 16.0902 22.9494 16.21Z" fill="#3CA9E5"/>
<path d="M41.1181 16.0002L31.8541 21.3475L41.1181 26.6947V16.0002Z" fill="#2853C3"/>
<path d="M41.1172 16.0002L50.0292 21.1378C50.247 21.2703 50.3825 21.5045 50.3887 21.7594V42.7288L41.1172 37.3891V16.0002Z" fill="#1A4199"/>
<path d="M50.3822 42.7365L41.4777 47.874C41.246 48.0078 40.9605 48.0078 40.7288 47.874L22.5677 37.3893V26.6799L50.3822 42.7365Z" fill="#2853C3"/>
<path d="M13.3334 21.3474V42.3169C13.3319 42.5798 13.4683 42.8242 13.6929 42.9609L22.5974 48.0984V26.6796L13.3334 21.3474Z" fill="#60BEFF"/>
<path d="M22.5963 48.0833L31.8528 42.7361L22.5963 37.3889V48.0833Z" fill="#3CA9E5"/>
</svg>

<svg width="64" height="64" fill="none" xmlns="http://www.w3.org/2000/svg"><rect width="64" height="64" rx="4" fill="#EDF0F4"/><path d="M22.95 16.21l18.168 10.485v10.694L13.333 21.347l8.905-5.137a.75.75 0 01.711 0z" fill="#3CA9E5"/><path d="M41.118 16l-9.264 5.348 9.264 5.347V16z" fill="#2853C3"/><path d="M41.117 16l8.912 5.138a.749.749 0 01.36.621v20.97l-9.272-5.34V16z" fill="#1A4199"/><path d="M50.382 42.736l-8.904 5.138a.749.749 0 01-.75 0l-18.16-10.485V26.68l27.814 16.058z" fill="#2853C3"/><path d="M13.333 21.347v20.97a.749.749 0 00.36.644l8.904 5.137V26.68l-9.264-5.333z" fill="#60BEFF"/><path d="M22.596 48.083l9.257-5.347-9.257-5.347v10.694z" fill="#3CA9E5"/></svg>
